X: 4771
T: Boys Of Lough Gowna, The
R: jig
M: 6/8
K: Gmajor
|:D|GFG BGB|dge dBG|=FEF AFA|c=fd cAF|
DGA B2c|dfa gdB|cAG FGA|1 BGF G2:|2 BGF GBd||
~g3 dcd|B/c/dB GBd|cBc =fed|c=fd cAF|
[1gfg dcd|B/c/dB GBd|cAG FGA|BGF GBd:|
[2DGA B2c|dfa gdB|cAG FGA|BGF G2||

